img/svg_icons/arrow-menu.svg

<svg width="9" height="14" viewBox="0 0 9 14" fill="none" xmlns="http://www.w3.org/2000/svg">
<path d="M7 7L7.70711 6.29289L8.41421 7L7.70711 7.70711L7 7ZM1.70711 0.292893L7.70711 6.29289L6.29289 7.70711L0.292893 1.70711L1.70711 0.292893ZM7.70711 7.70711L1.70711 13.7071L0.292893 12.2929L6.29289 6.29289L7.70711 7.70711Z" fill="#313131"/>
</svg>

<svg width="9" height="14" fill="none" xmlns="http://www.w3.org/2000/svg"><path d="M7 7l.707-.707.707.707-.707.707L7 7zM1.707.293l6 6-1.414 1.414-6-6L1.707.293zm6 7.414l-6 6-1.414-1.414 6-6 1.414 1.414z" fill="#313131"/></svg>
